images/3235511.svg

<?xml version="1.0" encoding="UTF-8"?>
<svg xmlns="http://www.w3.org/2000/svg" xmlns:xlink="http://www.w3.org/1999/xlink" width="300pt" height="300pt" viewBox="0 0 300 300" version="1.1">
<defs>
<g>
<symbol overflow="visible" id="glyph0-0">
<path style="stroke:none;" d="M 0.796875 2.828125 L 0.796875 -11.28125 L 8.796875 -11.28125 L 8.796875 2.828125 Z M 1.703125 1.9375 L 7.90625 1.9375 L 7.90625 -10.390625 L 1.703125 -10.390625 Z M 1.703125 1.9375 "/>
</symbol>
<symbol overflow="visible" id="glyph0-1">
<path style="stroke:none;" d="M 1.578125 -11.671875 L 3.703125 -11.671875 L 8.875 -1.90625 L 8.875 -11.671875 L 10.40625 -11.671875 L 10.40625 0 L 8.28125 0 L 3.109375 -9.765625 L 3.109375 0 L 1.578125 0 Z M 1.578125 -11.671875 "/>
</symbol>
<symbol overflow="visible" id="glyph0-2">
<path style="stroke:none;" d="M 6.3125 -10.59375 C 5.164062 -10.59375 4.253906 -10.164062 3.578125 -9.3125 C 2.898438 -8.457031 2.5625 -7.296875 2.5625 -5.828125 C 2.5625 -4.359375 2.898438 -3.195312 3.578125 -2.34375 C 4.253906 -1.488281 5.164062 -1.0625 6.3125 -1.0625 C 7.457031 -1.0625 8.363281 -1.488281 9.03125 -2.34375 C 9.695312 -3.195312 10.03125 -4.359375 10.03125 -5.828125 C 10.03125 -7.296875 9.695312 -8.457031 9.03125 -9.3125 C 8.363281 -10.164062 7.457031 -10.59375 6.3125 -10.59375 Z M 6.3125 -11.875 C 7.945312 -11.875 9.253906 -11.328125 10.234375 -10.234375 C 11.210938 -9.140625 11.703125 -7.671875 11.703125 -5.828125 C 11.703125 -3.984375 11.210938 -2.507812 10.234375 -1.40625 C 9.253906 -0.3125 7.945312 0.234375 6.3125 0.234375 C 4.664062 0.234375 3.351562 -0.3125 2.375 -1.40625 C 1.394531 -2.507812 0.90625 -3.984375 0.90625 -5.828125 C 0.90625 -7.671875 1.394531 -9.140625 2.375 -10.234375 C 3.351562 -11.328125 4.664062 -11.875 6.3125 -11.875 Z M 6.3125 -11.875 "/>
</symbol>
</g>
</defs>
<g id="surface35617">
<rect x="0" y="0" width="300" height="300" style="fill:rgb(100%,100%,100%);fill-opacity:1;stroke:none;"/>
<path style="fill:none;stroke-width:1.2;stroke-linecap:butt;stroke-linejoin:miter;stroke:rgb(0%,0%,0%);stroke-opacity:1;stroke-miterlimit:10;" d="M 50.332031 223.710938 L 65.246094 211.742188 "/>
<path style="fill:none;stroke-width:1.2;stroke-linecap:butt;stroke-linejoin:miter;stroke:rgb(0%,0%,100%);stroke-opacity:1;stroke-miterlimit:10;" d="M 65.246094 211.742188 L 80.164062 199.773438 "/>
<path style="fill:none;stroke-width:1.2;stroke-linecap:butt;stroke-linejoin:miter;stroke:rgb(0%,0%,100%);stroke-opacity:1;stroke-miterlimit:10;" d="M 80.164062 199.773438 L 97.988281 206.707031 "/>
<path style="fill:none;stroke-width:1.2;stroke-linecap:butt;stroke-linejoin:miter;stroke:rgb(0%,0%,0%);stroke-opacity:1;stroke-miterlimit:10;" d="M 97.988281 206.707031 L 115.8125 213.644531 "/>
<path style="fill:none;stroke-width:1.2;stroke-linecap:butt;stroke-linejoin:miter;stroke:rgb(0%,0%,100%);stroke-opacity:1;stroke-miterlimit:10;" d="M 80.164062 199.773438 L 77.257812 180.871094 "/>
<path style="fill:none;stroke-width:1.2;stroke-linecap:butt;stroke-linejoin:miter;stroke:rgb(0%,0%,0%);stroke-opacity:1;stroke-miterlimit:10;" d="M 77.257812 180.871094 L 74.351562 161.96875 "/>
<path style=" stroke:none;fill-rule:nonzero;fill:rgb(100%,100%,100%);fill-opacity:1;" d="M 74.164062 190.273438 L 86.164062 190.273438 L 86.164062 209.273438 L 74.164062 209.273438 Z M 74.164062 190.273438 "/>
<g style="fill:rgb(0%,0%,100%);fill-opacity:1;">
  <use xlink:href="#glyph0-1" x="74.164062" y="205.125"/>
</g>
<path style="fill:none;stroke-width:1.2;stroke-linecap:butt;stroke-linejoin:miter;stroke:rgb(0%,0%,0%);stroke-opacity:1;stroke-miterlimit:10;" d="M 74.351562 161.96875 L 56.53125 155.035156 "/>
<path style="fill:none;stroke-width:1.2;stroke-linecap:butt;stroke-linejoin:miter;stroke:rgb(0%,0%,100%);stroke-opacity:1;stroke-miterlimit:10;" d="M 56.53125 155.035156 L 38.707031 148.097656 "/>
<path style="fill:none;stroke-width:1.2;stroke-linecap:butt;stroke-linejoin:miter;stroke:rgb(0%,0%,0%);stroke-opacity:1;stroke-miterlimit:10;" d="M 74.050781 152.195312 L 59.792969 146.644531 "/>
<path style="fill:none;stroke-width:1.2;stroke-linecap:butt;stroke-linejoin:miter;stroke:rgb(0%,0%,100%);stroke-opacity:1;stroke-miterlimit:10;" d="M 59.792969 146.644531 L 45.535156 141.097656 "/>
<path style="fill:none;stroke-width:1.2;stroke-linecap:butt;stroke-linejoin:miter;stroke:rgb(0%,0%,0%);stroke-opacity:1;stroke-miterlimit:10;" d="M 104.1875 138.03125 L 74.351562 161.96875 "/>
<path style="fill:none;stroke-width:1.2;stroke-linecap:butt;stroke-linejoin:miter;stroke:rgb(0%,0%,100%);stroke-opacity:1;stroke-miterlimit:10;" d="M 38.707031 148.097656 L 35.800781 129.195312 "/>
<path style="fill:none;stroke-width:1.2;stroke-linecap:butt;stroke-linejoin:miter;stroke:rgb(0%,0%,0%);stroke-opacity:1;stroke-miterlimit:10;" d="M 35.800781 129.195312 L 32.894531 110.292969 "/>
<path style=" stroke:none;fill-rule:nonzero;fill:rgb(100%,100%,100%);fill-opacity:1;" d="M 32.707031 138.597656 L 44.707031 138.597656 L 44.707031 157.597656 L 32.707031 157.597656 Z M 32.707031 138.597656 "/>
<g style="fill:rgb(0%,0%,100%);fill-opacity:1;">
  <use xlink:href="#glyph0-1" x="32.707031" y="153.449219"/>
</g>
<path style="fill:none;stroke-width:1.2;stroke-linecap:butt;stroke-linejoin:miter;stroke:rgb(0%,0%,0%);stroke-opacity:1;stroke-miterlimit:10;" d="M 32.894531 110.292969 L 47.8125 98.324219 "/>
<path style="fill:none;stroke-width:1.2;stroke-linecap:butt;stroke-linejoin:miter;stroke:rgb(0%,0%,100%);stroke-opacity:1;stroke-miterlimit:10;" d="M 47.8125 98.324219 L 62.730469 86.355469 "/>
<path style="fill:none;stroke-width:1.2;stroke-linecap:butt;stroke-linejoin:miter;stroke:rgb(0%,0%,0%);stroke-opacity:1;stroke-miterlimit:10;" d="M 41.507812 114.917969 L 53.445312 105.34375 "/>
<path style="fill:none;stroke-width:1.2;stroke-linecap:butt;stroke-linejoin:miter;stroke:rgb(0%,0%,100%);stroke-opacity:1;stroke-miterlimit:10;" d="M 53.445312 105.34375 L 65.378906 95.769531 "/>
<path style="fill:none;stroke-width:1.2;stroke-linecap:butt;stroke-linejoin:miter;stroke:rgb(0%,0%,100%);stroke-opacity:1;stroke-miterlimit:10;" d="M 62.730469 86.355469 L 80.550781 93.292969 "/>
<path style="fill:none;stroke-width:1.2;stroke-linecap:butt;stroke-linejoin:miter;stroke:rgb(0%,0%,0%);stroke-opacity:1;stroke-miterlimit:10;" d="M 80.550781 93.292969 L 98.375 100.226562 "/>
<path style=" stroke:none;fill-rule:nonzero;fill:rgb(100%,100%,100%);fill-opacity:1;" d="M 56.730469 76.855469 L 68.730469 76.855469 L 68.730469 95.855469 L 56.730469 95.855469 Z M 56.730469 76.855469 "/>
<g style="fill:rgb(0%,0%,100%);fill-opacity:1;">
  <use xlink:href="#glyph0-1" x="56.730469" y="91.707031"/>
</g>
<path style="fill:none;stroke-width:1.2;stroke-linecap:butt;stroke-linejoin:miter;stroke:rgb(0%,0%,0%);stroke-opacity:1;stroke-miterlimit:10;" d="M 98.375 100.226562 L 104.1875 138.03125 "/>
<path style="fill:none;stroke-width:1.2;stroke-linecap:butt;stroke-linejoin:miter;stroke:rgb(0%,0%,0%);stroke-opacity:1;stroke-miterlimit:10;" d="M 107.851562 102.640625 L 112.503906 132.882812 "/>
<path style="fill:none;stroke-width:1.2;stroke-linecap:butt;stroke-linejoin:miter;stroke:rgb(0%,0%,0%);stroke-opacity:1;stroke-miterlimit:10;" d="M 128.210938 76.289062 L 98.375 100.226562 "/>
<path style="fill:none;stroke-width:1.2;stroke-linecap:butt;stroke-linejoin:miter;stroke:rgb(0%,0%,0%);stroke-opacity:1;stroke-miterlimit:10;" d="M 104.1875 138.03125 L 139.835938 151.902344 "/>
<path style="fill:none;stroke-width:1.2;stroke-linecap:butt;stroke-linejoin:miter;stroke:rgb(0%,0%,0%);stroke-opacity:1;stroke-miterlimit:10;" d="M 139.835938 151.902344 L 169.667969 127.964844 "/>
<path style="fill:none;stroke-width:1.2;stroke-linecap:butt;stroke-linejoin:miter;stroke:rgb(0%,0%,0%);stroke-opacity:1;stroke-miterlimit:10;" d="M 137.1875 142.488281 L 161.054688 123.339844 "/>
<path style="fill:none;stroke-width:1.2;stroke-linecap:butt;stroke-linejoin:miter;stroke:rgb(0%,0%,0%);stroke-opacity:1;stroke-miterlimit:10;" d="M 169.667969 127.964844 L 163.855469 90.160156 "/>
<path style="fill:none;stroke-width:1.2;stroke-linecap:butt;stroke-linejoin:miter;stroke:rgb(0%,0%,0%);stroke-opacity:1;stroke-miterlimit:10;" d="M 169.667969 127.964844 L 205.316406 141.835938 "/>
<path style="fill:none;stroke-width:1.2;stroke-linecap:butt;stroke-linejoin:miter;stroke:rgb(0%,0%,0%);stroke-opacity:1;stroke-miterlimit:10;" d="M 163.855469 90.160156 L 128.210938 76.289062 "/>
<path style="fill:none;stroke-width:1.2;stroke-linecap:butt;stroke-linejoin:miter;stroke:rgb(0%,0%,0%);stroke-opacity:1;stroke-miterlimit:10;" d="M 157.027344 97.160156 L 128.511719 86.0625 "/>
<path style="fill:none;stroke-width:1.2;stroke-linecap:butt;stroke-linejoin:miter;stroke:rgb(0%,0%,0%);stroke-opacity:1;stroke-miterlimit:10;" d="M 205.316406 141.835938 L 237.488281 121.148438 "/>
<path style="fill:none;stroke-width:1.2;stroke-linecap:butt;stroke-linejoin:miter;stroke:rgb(0%,0%,0%);stroke-opacity:1;stroke-miterlimit:10;" d="M 213.402344 147.335938 L 239.140625 130.785156 "/>
<path style="fill:none;stroke-width:1.2;stroke-linecap:butt;stroke-linejoin:miter;stroke:rgb(0%,0%,0%);stroke-opacity:1;stroke-miterlimit:10;" d="M 215.046875 178.824219 L 205.316406 141.835938 "/>
<path style="fill:none;stroke-width:1.2;stroke-linecap:butt;stroke-linejoin:miter;stroke:rgb(0%,0%,0%);stroke-opacity:1;stroke-miterlimit:10;" d="M 237.488281 121.148438 L 252.296875 133.25 "/>
<path style="fill:none;stroke-width:1.2;stroke-linecap:butt;stroke-linejoin:miter;stroke:rgb(100%,0%,0%);stroke-opacity:1;stroke-miterlimit:10;" d="M 252.296875 133.25 L 267.105469 145.355469 "/>
<path style="fill:none;stroke-width:1.2;stroke-linecap:butt;stroke-linejoin:miter;stroke:rgb(100%,0%,0%);stroke-opacity:1;stroke-miterlimit:10;" d="M 267.105469 145.355469 L 260.171875 163.175781 "/>
<path style="fill:none;stroke-width:1.2;stroke-linecap:butt;stroke-linejoin:miter;stroke:rgb(0%,0%,0%);stroke-opacity:1;stroke-miterlimit:10;" d="M 260.171875 163.175781 L 253.238281 181 "/>
<path style=" stroke:none;fill-rule:nonzero;fill:rgb(100%,100%,100%);fill-opacity:1;" d="M 261.105469 135.855469 L 274.105469 135.855469 L 274.105469 154.855469 L 261.105469 154.855469 Z M 261.105469 135.855469 "/>
<g style="fill:rgb(100%,0%,0%);fill-opacity:1;">
  <use xlink:href="#glyph0-2" x="261.105469" y="150.707031"/>
</g>
<path style="fill:none;stroke-width:1.2;stroke-linecap:butt;stroke-linejoin:miter;stroke:rgb(0%,0%,0%);stroke-opacity:1;stroke-miterlimit:10;" d="M 253.238281 181 L 215.046875 178.824219 "/>
<path style="fill:none;stroke-width:1.2;stroke-linecap:butt;stroke-linejoin:miter;stroke:rgb(0%,0%,0%);stroke-opacity:1;stroke-miterlimit:10;" d="M 249.929688 171.796875 L 219.378906 170.058594 "/>
</g>
</svg>

<svg xmlns="http://www.w3.org/2000/svg" xmlns:xlink="http://www.w3.org/1999/xlink" width="300pt" height="300pt" viewBox="0 0 300 300"><defs><symbol overflow="visible"><path d="M.797 2.828v-14.11h8V2.83zm.906-.89h6.203v-12.33H1.703zm0 0"/></symbol><symbol overflow="visible" id="a"><path d="M1.578-11.672h2.125l5.172 9.766v-9.766h1.53V0H8.282L3.11-9.766V0H1.577zm0 0"/></symbol><symbol overflow="visible" id="b"><path d="M6.313-10.594c-1.15 0-2.06.43-2.735 1.28-.68.857-1.015 2.017-1.015 3.486 0 1.47.335 2.633 1.015 3.484.676.856 1.586 1.28 2.735 1.28 1.144.002 2.05-.424 2.718-1.28.665-.85 1-2.015 1-3.484 0-1.47-.335-2.63-1-3.484-.667-.852-1.573-1.282-2.717-1.282zm0-1.28c1.632 0 2.94.546 3.92 1.64.978 1.093 1.47 2.562 1.47 4.406 0 1.844-.492 3.32-1.47 4.422-.98 1.093-2.288 1.64-3.92 1.64-1.65 0-2.96-.546-3.938-1.64-.98-1.102-1.47-2.578-1.47-4.422 0-1.844.49-3.313 1.47-4.406.977-1.094 2.29-1.64 3.938-1.64zm0 0"/></symbol></defs><g><path fill="#fff" d="M0 0h300v300H0z"/><path d="M50.332 223.71l14.914-11.968" stroke-width="1.2" stroke="#000" stroke-miterlimit="10" fill="none"/><path d="M65.246 211.742l14.918-11.97M80.164 199.773l17.824 6.934" stroke-width="1.2" stroke="#00f" stroke-miterlimit="10" fill="none"/><path d="M97.988 206.707l17.825 6.938" stroke-width="1.2" stroke="#000" stroke-miterlimit="10" fill="none"/><path d="M80.164 199.773l-2.906-18.902" stroke-width="1.2" stroke="#00f" stroke-miterlimit="10" fill="none"/><path d="M77.258 180.87l-2.906-18.9" stroke-width="1.2" stroke="#000" stroke-miterlimit="10" fill="none"/><path d="M74.164 190.273h12v19h-12zm0 0" fill="#fff"/><use xlink:href="#a" x="74.164" y="205.125" fill="#00f"/><path d="M74.352 161.97l-17.82-6.935" stroke-width="1.2" stroke="#000" stroke-miterlimit="10" fill="none"/><path d="M56.53 155.035l-17.823-6.937" stroke-width="1.2" stroke="#00f" stroke-miterlimit="10" fill="none"/><path d="M74.05 152.195l-14.257-5.55" stroke-width="1.2" stroke="#000" stroke-miterlimit="10" fill="none"/><path d="M59.793 146.645l-14.258-5.547" stroke-width="1.2" stroke="#00f" stroke-miterlimit="10" fill="none"/><path d="M104.188 138.03l-29.836 23.94" stroke-width="1.2" stroke="#000" stroke-miterlimit="10" fill="none"/><path d="M38.707 148.098L35.8 129.195" stroke-width="1.2" stroke="#00f" stroke-miterlimit="10" fill="none"/><path d="M35.8 129.195l-2.905-18.902" stroke-width="1.2" stroke="#000" stroke-miterlimit="10" fill="none"/><path d="M32.707 138.598h12v19h-12zm0 0" fill="#fff"/><use xlink:href="#a" x="32.707" y="153.449" fill="#00f"/><path d="M32.895 110.293l14.917-11.97" stroke-width="1.2" stroke="#000" stroke-miterlimit="10" fill="none"/><path d="M47.813 98.324l14.917-11.97" stroke-width="1.2" stroke="#00f" stroke-miterlimit="10" fill="none"/><path d="M41.508 114.918l11.937-9.574" stroke-width="1.2" stroke="#000" stroke-miterlimit="10" fill="none"/><path d="M53.445 105.344L65.38 95.77M62.73 86.355l17.82 6.938" stroke-width="1.2" stroke="#00f" stroke-miterlimit="10" fill="none"/><path d="M80.55 93.293l17.825 6.934" stroke-width="1.2" stroke="#000" stroke-miterlimit="10" fill="none"/><path d="M56.73 76.855h12v19h-12zm0 0" fill="#fff"/><use xlink:href="#a" x="56.73" y="91.707" fill="#00f"/><path d="M98.375 100.227l5.813 37.804M107.852 102.64l4.652 30.243M128.21 76.29l-29.835 23.937M104.188 138.03l35.648 13.872M139.836 151.902l29.832-23.937M137.188 142.488l23.867-19.148M169.668 127.965l-5.813-37.805M169.668 127.965l35.648 13.87M163.855 90.16L128.21 76.29M157.027 97.16l-28.515-11.097M205.316 141.836l32.172-20.688M213.402 147.336l25.74-16.55M215.047 178.824l-9.73-36.988M237.488 121.148l14.81 12.102" stroke-width="1.2" stroke="#000" stroke-miterlimit="10" fill="none"/><path d="M252.297 133.25l14.808 12.105M267.105 145.355l-6.933 17.82" stroke-width="1.2" stroke="#f00" stroke-miterlimit="10" fill="none"/><path d="M260.172 163.176L253.238 181" stroke-width="1.2" stroke="#000" stroke-miterlimit="10" fill="none"/><path d="M261.105 135.855h13v19h-13zm0 0" fill="#fff"/><use xlink:href="#b" x="261.105" y="150.707" fill="#f00"/><path d="M253.238 181l-38.19-2.176M249.93 171.797l-30.55-1.738" stroke-width="1.2" stroke="#000" stroke-miterlimit="10" fill="none"/></g></svg>
